X: 1
T: Earl Marshal's Reel
R: reel
B: Robert Bremner "A Collection of Scots Reels or Country Dances" 1757 p.73 #1
S: http://imslp.org/wiki/A_Collection_of_Scots_Reels_or_Country_Dances_(Bremner,_Robert)
Z: 2013 John Chambers <jc:trillian.mit.edu>
M: C
L: 1/8
K: F
c |\
"F"F2FA cAAc | "F"A{B}c FA cAAf |\
"F"F2FA cAAc | "Bm"d{e}f "F"cA "Gm"~G2"C7"G :|
|: c |\
"F"f{g}afc     "Bb"d2-df | "F"cfAf     cfAf |\
"F"a/g/f/e/ fc "Bb"d2-df | "F"cAfd "C7"cAG :|
